X:1
T:Annetta, 886.886
T:Annetta, 886.886
T:William James Kirkpatrick, 1901
T:Public Domain Courtesy of the Cyber Hymnal™
C:William James Kirkpatrick, 1901
Z:Public Domain
Z:Courtesy of the Cyber Hymnal™
%%score ( 1 2 ) ( 3 4 )
L:1/8
Q:1/4=110
M:4/4
K:C
V:1 treble 
V:2 treble 
V:3 bass 
V:4 bass 
V:1
 [EG]2 | [Ec]2 [FB]2 [Gc]3 [EG] | [GB]2 [FA]2 [EG]3 [DF] | [CE]2 [FA]2 [EG]3 C | %4
 [B,F]2 [CE]2 [B,D]4 | [CE]2 [CE][CE] [EA]2 [D^F]2 | [DG]6 G2 | [Fd]3 [Ec] (BA) (GF) | %8
 [CE]2 [FA]2 [EG]2 [EG]2 | [Fd]3 [Ec] (BA) (GF) | [CE]2 [FA]2 [EG]2 [EG]2 | %11
 [FA]3 [CA] [Fd]2 [FB]2 | [Ec]8 |] %13
V:2
 x2 | x8 | x8 | x7 C | x8 | x8 | x6 G2 | x4 F2 B,2 | x8 | x4 F2 B,2 | x8 | x8 | x8 |] %13
V:3
 [C,G,]2 | [C,G,]2 [D,G,]2 [E,G,]3 [C,C] | [F,C]2 [F,C]2 [C,C]3 [B,,G,] | %3
 [C,G,]2 [C,C]2 [C,C]3 [E,G,] | [D,G,]2 [C,G,]2 [G,,G,]4 | [C,G,]2 [C,G,][C,G,] [A,,C]2 [D,C]2 | %6
 [G,,B,]6 [G,B,]2 | [G,B,]3 [G,C] [G,D]2 [G,,G,]2 | [C,G,]2 [C,C]2 [C,C]2 [G,C]2 | %9
 [G,B,]3 [G,C] [G,D]2 [G,,G,]2 | [C,G,]2 [C,C]2 [C,C]2 [C,C]2 | [F,C]3 [F,A,] [D,A,]2 G,2 | %12
 [C,G,]8 |] %13
V:4
 x2 | x8 | x8 | x8 | x8 | x8 | x8 | x8 | x8 | x8 | x8 | x6 G,2 | x8 |] %13

